X:2910
T:Jack's Alive. JMT043
O:england
M:6/8
L:1/8
Q:110
S:J.Moore,Tyneside,1841.(31)
R:Jig
A:Northumbria
K:G
D|G2G G-AB|A2A A-Bc|d2Bc2A|B2G F-ED|G2G G2B|A2AA2c|BdB cAF|G3G2:|
|d|g2g gbg|f2f f-a.f|e2e e-f.g|a2g f-e.d|g2g g-b.g|f2f f-a.f|ege faf|g3
-g2d|gbg gbg|faf faf|
efe efg|fag fed|g3dBd|e3cAc|BdB cAF|G3G2|]


